X:1
T:[ID 2-6]
T:[ID 2-6]
T:Bezeichnung standardisiert: [unlesbar] [mit Trio]; [Menuet] Con Trio No. 1 ex D. #. \"Ahnlich in dieser Quelle: ID 7-67;
T:Urheber unbekannt Datum in der hier transkribierten schriftlichen Quelle: 1776 - 1791
C:Urheber unbekannt
C:Datum in der hier transkribierten schriftlichen Quelle: 1776 - 1791
L:1/8
M:3/4
K:D
V:1 treble 
V:1
 d4 fd | d'2 d'2 c'2 | A4 (3cBA | g2 g2 f2 | d4 (3fed | d'2 d'2 b2 | c'b a2 (3Tefg | a6 :: %8
 AB A2 a2 | a2 gf g2 | AB A2 g2 | g2 fe f2 | D2 FDFA | d2 fdfa | bg f2 Te2 | e2 d4 :| %16
[K:C]"^Trio dieser Trio geh\\"ort unbedingt[?%5d be\\"y""^1)" !fermata!x x A2 G2 | T^F4 E2 | %18
 ^F2 E2 D2 | ^CE A,4 | D^F A2 G2 | T^F4 E2 | ^FE[DF]EFG | A6 ::"^1)" x x x x x x x x x x x e | %25
 e^f g2 f2 | T^f4 e2 | d^f a2 g2 | T^f4 e2 | ^fe d2 ^c2 | d6 :| %31

